packages/components/icon/src/assets/icons/merge.svg

<svg width="24" height="24" viewBox="0 0 24 24" fill="none" xmlns="http://www.w3.org/2000/svg">
<path fill-rule="evenodd" clip-rule="evenodd" d="M9.44731 4.62707C9.75103 4.98864 10.0222 5.38275 10.2608 5.8094C10.4995 6.23606 10.7707 6.76756 11.0744 7.40393C11.3492 7.9969 11.5661 8.44525 11.7252 8.74897C11.8843 9.05269 12.0651 9.32025 12.2676 9.55165C12.4556 9.7686 12.6544 9.92407 12.8642 10.0181C13.0739 10.1121 13.3161 10.1591 13.5909 10.1591H15.6736V8.01136C15.6736 7.76549 15.7459 7.64256 15.8905 7.64256C15.9773 7.64256 16.0785 7.70041 16.1942 7.81612L19.47 11.0919C19.6147 11.2221 19.687 11.3884 19.687 11.5909C19.687 11.7934 19.6147 11.9669 19.47 12.1116L16.1942 15.3874C16.0785 15.5031 15.9773 15.561 15.8905 15.561C15.7459 15.561 15.6736 15.4308 15.6736 15.1705V13.0227H13.5909C13.3161 13.0227 13.0775 13.0733 12.875 13.1746C12.6725 13.2758 12.47 13.4349 12.2676 13.6519C12.0651 13.8833 11.8879 14.1436 11.7361 14.4329C11.5842 14.7221 11.3636 15.1705 11.0744 15.7779C10.7851 16.4143 10.5176 16.9494 10.2717 17.3833C10.0258 17.8172 9.75103 18.2149 9.44731 18.5764C8.50723 19.6467 7.34298 20.1818 5.95455 20.1818H5.47727C5.34711 20.1818 5.23502 20.1384 5.14101 20.0517C5.047 19.9649 5 19.8492 5 19.7045V17.7955C5 17.6653 5.047 17.5532 5.14101 17.4592C5.23502 17.3652 5.34711 17.3182 5.47727 17.3182H5.95455C6.22934 17.3182 6.47159 17.2712 6.6813 17.1772C6.89101 17.0832 7.08988 16.9277 7.27789 16.7107C7.48037 16.4793 7.66116 16.2118 7.82025 15.9081C7.97934 15.6043 8.19628 15.156 8.47107 14.563C8.77479 13.9267 9.04597 13.3951 9.28461 12.9685C9.52324 12.5418 9.79442 12.1477 10.0981 11.7862L10.2717 11.5909L10.0981 11.4174C9.79442 11.0558 9.51963 10.6581 9.27376 10.2242C9.02789 9.79029 8.76033 9.25517 8.47107 8.6188C8.18182 8.01136 7.96126 7.56302 7.8094 7.27376C7.65754 6.9845 7.48037 6.72417 7.27789 6.49277C7.07541 6.27583 6.87293 6.11674 6.67045 6.0155C6.46797 5.91426 6.22934 5.86364 5.95455 5.86364H5.47727C5.34711 5.86364 5.23502 5.82025 5.14101 5.73347C5.047 5.64669 5 5.53099 5 5.38636V3.47727C5 3.34711 5.047 3.23502 5.14101 3.14101C5.23502 3.047 5.34711 3 5.47727 3H5.95455C7.34298 3 8.50723 3.54235 9.44731 4.62707Z" fill="currentColor"/>
</svg>

<svg viewBox="0 0 24 24" fill="none" xmlns="http://www.w3.org/2000/svg"><path fill-rule="evenodd" clip-rule="evenodd" d="M9.447 4.627a7.6 7.6 0 0 1 .814 1.182c.239.427.51.959.813 1.595.275.593.492 1.041.651 1.345.16.304.34.571.543.803.188.217.386.372.596.466.21.094.452.141.727.141h2.083V8.011c0-.246.072-.368.216-.368.087 0 .188.057.304.173l3.276 3.276a.64.64 0 0 1 .217.499.71.71 0 0 1-.217.52l-3.276 3.276c-.116.116-.217.174-.303.174-.145 0-.217-.13-.217-.39v-2.148H13.59c-.275 0-.513.05-.716.152a2.19 2.19 0 0 0-.607.477c-.203.231-.38.492-.532.78-.152.29-.372.739-.662 1.346a20.57 20.57 0 0 1-.802 1.605 7.875 7.875 0 0 1-.825 1.193c-.94 1.07-2.104 1.606-3.492 1.606h-.478a.48.48 0 0 1-.336-.13.45.45 0 0 1-.141-.348v-1.909a.46.46 0 0 1 .141-.336.46.46 0 0 1 .336-.14h.478c.274 0 .517-.048.726-.142.21-.094.409-.25.597-.466.202-.232.383-.5.542-.803.16-.304.376-.752.651-1.345.304-.636.575-1.168.814-1.595.238-.426.51-.82.813-1.182l.174-.195-.174-.174a7.923 7.923 0 0 1-.824-1.193A20.622 20.622 0 0 1 8.47 8.62a42.32 42.32 0 0 0-.662-1.345 4.011 4.011 0 0 0-.531-.781 2.193 2.193 0 0 0-.608-.478 1.583 1.583 0 0 0-.715-.151h-.478a.479.479 0 0 1-.336-.13.45.45 0 0 1-.14-.35V3.477a.46.46 0 0 1 .141-.336A.46.46 0 0 1 5.477 3h.478c1.388 0 2.552.542 3.492 1.627Z" fill="currentColor"/></svg>
